X:1
T:Four Pounds a Day
M:4/4
L:1/8
K:G
 z4 z2 z z/2 D/2| D3/2 D/2 B,3/2 C/2 D3/2 D/2 D3/2 D/2| G3/2 G/2 A3/2 F/2 G3 D|\
 G3/2 G/2 G3/2 F/2 E2 F3/2 E/2| A3/2 G/2 F3/2 E/2 D3 D| E3/2 D/2 E3/2 F/2 G3/2 G/2 F3/2 E/2|\
 C3/2 G/2 B,3/2 C/2 A,3 D| G,3/2 G,/2 B,3/2 D/2 G2 D3/2 B,/2| C2 A,3/2 D/2 G,2- G,3/2 z/2|\
